packages/icons/src/connectors-blue.svg

<svg fill="none" viewBox="0 0 64 64" xmlns="http://www.w3.org/2000/svg"><path clip-rule="evenodd" d="m24.9446 7.06017c-.3094-.34896-.756-.545-1.2223-.53647-.4663.00854-.9055.22078-1.2018.58082l-9.0751 11.02438c-.392.4763-.4741 1.1359-.2108 1.6937.2634.5579.8249.9137 1.4418.9137h4.2677c.0814 5.3265.5525 11.763 1.2351 17.6674.7471 6.4634 1.766 12.4581 2.8572 15.6632.0727.2135.1872.4032.3321.5616.2917.3747.7471.6156 1.2587.6156.8806 0 1.5944-.7137 1.5944-1.5942 0-.357.0091-.7072.027-1.0508.0633-.6055.1293-1.2367.1973-1.8907.5373-3.3602 2.0178-5.9755 4.1943-7.8652 2.5155-2.184 6.1072-3.5241 10.6145-3.7778v4.8605c0 .6274.368 1.1965.9402 1.4539s1.2422.1553 1.7118-.2609l11.0254-9.7722c.349-.3094.5451-.756.5366-1.2222-.0086-.4663-.2208-.9054-.5809-1.2017l-11.0255-9.0742c-.4763-.392-1.136-.4741-1.6939-.2108-.5579.2634-.9137.8249-.9137 1.4417v4.2827c-5.0172.1832-9.5222 1.3121-12.8131 4.7588-.1763.1847-.3483.3751-.5159.5714.3589-4.7533.6288-9.5877.6837-13.9561h4.9153c.6275 0 1.1966-.368 1.454-.9401.2574-.5722.1553-1.2422-.2609-1.7117zm-6.8908 10.48763 5.7426-6.9761 6.1844 6.9761h-4.5499v1.5943c0 7.2948-.6957 16.231-1.4275 23.9431-.2332-1.5978-.4538-3.294-.6565-5.0476-.7425-6.4233-1.2266-13.4493-1.2266-18.8955v-1.5943zm10.4957 22.8879c-.1941.1684-.3833.3411-.5677.5179.7355-1.9828 1.6748-3.4877 2.7663-4.6308 2.7126-2.8411 6.7055-3.8002 12.101-3.8002h1.5944v-4.066l6.9767 5.742-6.9767 6.1837v-4.5494h-1.5944c-5.7893 0-10.7563 1.5264-14.2996 4.6028z" fill="#0278d5" fill-rule="evenodd"/></svg>

<svg viewBox="0 0 64 64" fill="none" xmlns="http://www.w3.org/2000/svg">
<path fill-rule="evenodd" clip-rule="evenodd" d="M24.9446 7.06017C24.6352 6.71121 24.1886 6.51517 23.7223 6.5237C23.256 6.53224 22.8168 6.74448 22.5205 7.10452L13.4454 18.1289C13.0534 18.6052 12.9713 19.2648 13.2346 19.8226C13.498 20.3805 14.0595 20.7363 14.6764 20.7363H18.9441C19.0255 26.0628 19.4966 32.4993 20.1792 38.4037C20.9263 44.8671 21.9452 50.8618 23.0364 54.0669C23.1091 54.2804 23.2236 54.4701 23.3685 54.6285C23.6602 55.0032 24.1156 55.2441 24.6272 55.2441C25.5078 55.2441 26.2216 54.5304 26.2216 53.6499C26.2216 53.2929 26.2307 52.9427 26.2486 52.5991C26.3119 51.9936 26.3779 51.3624 26.4459 50.7084C26.9832 47.3482 28.4637 44.7329 30.6402 42.8432C33.1557 40.6592 36.7474 39.3191 41.2547 39.0654V43.9259C41.2547 44.5533 41.6227 45.1224 42.1949 45.3798C42.7671 45.6372 43.4371 45.5351 43.9067 45.1189L54.9321 35.3467C55.2811 35.0373 55.4772 34.5907 55.4687 34.1245C55.4601 33.6582 55.2479 33.2191 54.8878 32.9228L43.8623 23.8486C43.386 23.4566 42.7263 23.3745 42.1684 23.6378C41.6105 23.9012 41.2547 24.4627 41.2547 25.0795V29.3622C36.2375 29.5454 31.7325 30.6743 28.4416 34.121C28.2653 34.3057 28.0933 34.4961 27.9257 34.6924C28.2846 29.9391 28.5545 25.1047 28.6094 20.7363H33.5247C34.1522 20.7363 34.7213 20.3683 34.9787 19.7962C35.2361 19.224 35.134 18.554 34.7178 18.0845L24.9446 7.06017ZM18.0538 17.5478L23.7964 10.5717L29.9808 17.5478H25.4309V19.1421C25.4309 26.4369 24.7352 35.3731 24.0034 43.0852C23.7702 41.4874 23.5496 39.7912 23.3469 38.0376C22.6044 31.6143 22.1203 24.5883 22.1203 19.1421V17.5478H18.0538ZM28.5495 40.4357C28.3554 40.6041 28.1662 40.7768 27.9818 40.9536C28.7173 38.9708 29.6566 37.4659 30.7481 36.3228C33.4607 33.4817 37.4536 32.5226 42.8491 32.5226H44.4435V28.4566L51.4202 34.1986L44.4435 40.3823V35.8329H42.8491C37.0598 35.8329 32.0928 37.3593 28.5495 40.4357Z" fill="#0278D5"/>
</svg>
